assets/images/robot-submission.svg

<?xml version="1.0" encoding="UTF-8"?>
<svg width="137px" height="192px" viewBox="0 0 137 192" version="1.1" xmlns="http://www.w3.org/2000/svg" xmlns:xlink="http://www.w3.org/1999/xlink">
    <!-- Generator: Sketch 41.2 (35397) - http://www.bohemiancoding.com/sketch -->
    <title>Group 2</title>
    <desc>Created with Sketch.</desc>
    <defs></defs>
    <g id="Page-1" stroke="none" stroke-width="1" fill="none" fill-rule="evenodd">
        <g id="Group-2" fill="#4FB7FC">
            <g id="robot-of-circular-parts">
                <g id="Capa_1">
                    <g id="Group">
                        <path d="M113.679042,169.717688 C115.573792,168.321 116.807167,166.070781 116.807167,163.522125 C116.807167,160.167687 114.662167,157.344469 111.677042,156.288 C114.656208,155.225562 116.807167,152.414281 116.807167,149.059844 C116.807167,145.6875 114.632375,142.852344 111.617458,141.807813 C114.632375,140.76925 116.807167,137.940063 116.807167,134.567719 C116.807167,134.239438 116.783333,133.935031 116.741625,133.624656 C129.033667,121.508094 136.67225,104.652344 136.67225,86 L68.4374167,86 L68.2407917,86 L0,86 C0,104.646375 7.62666667,121.490187 19.9246667,133.612719 C19.894875,133.905188 19.8710417,134.203625 19.8710417,134.496094 C19.8710417,137.862469 22.0517917,140.703594 25.0667083,141.748125 C22.0517917,142.786687 19.8710417,145.615875 19.8710417,148.988219 C19.8710417,152.342656 22.0160417,155.165875 25.0011667,156.228313 C22.0160417,157.284781 19.8710417,160.102031 19.8710417,163.456469 C19.8710417,165.999156 21.1044167,168.243406 22.9991667,169.646062 C13.2930417,172.081313 6.095375,180.861344 6.095375,191.330531 L50.7888333,191.330531 C50.7888333,181.631312 44.6100417,173.388469 35.9942917,170.290687 C38.467,169.007406 40.1532083,166.434875 40.1532083,163.4505 C40.1532083,160.096062 38.0082083,157.284781 35.017125,156.222344 C38.00225,155.165875 40.1532083,152.348625 40.1532083,148.994188 C40.1532083,148.367469 40.0519167,147.758656 39.9089167,147.173719 C48.101625,150.778844 57.1523333,152.790313 66.6797083,152.790313 C67.227875,152.790313 67.764125,152.766437 68.3063333,152.742563 C68.8664167,152.7545 69.4265,152.790313 69.9865833,152.790313 C79.5199167,152.790313 88.5765833,150.772875 96.77525,147.16775 C96.6203333,147.770594 96.5190417,148.403281 96.5190417,149.047906 C96.5190417,152.402344 98.67,155.225563 101.649167,156.276063 C98.67,157.332531 96.5190417,160.15575 96.5190417,163.510188 C96.5190417,166.488594 98.20525,169.067094 100.683917,170.350375 C92.0681667,173.460094 85.889375,181.691 85.889375,191.402156 L130.582833,191.402156 C130.59475,180.932969 123.391125,172.152938 113.679042,169.717688 L113.679042,169.717688 Z" id="Shape"></path>
                        <path d="M32.887875,32.5535625 C33.1977083,34.5829375 34.6872917,43.046625 38.6912917,50.5851563 C31.6485417,57.92075 27.3049167,67.8885625 27.3049167,78.8770313 L67.9169167,78.8770313 L68.1135417,78.8770313 L108.725542,78.8770313 C108.725542,67.9005 104.393833,57.944625 97.363,50.6030625 C101.355083,43.0764687 102.83275,34.6366563 103.1545,32.6072812 C110.524958,30.9778125 116.042375,24.40025 116.042375,16.5334375 C116.042375,7.43109375 108.683833,0.0596875 99.597375,0.0596875 C90.5228333,0.0596875 83.152375,7.43109375 83.152375,16.5334375 C83.152375,24.2987813 88.5267917,30.79875 95.7482917,32.5356563 C95.3014167,35.0126875 94.1037917,40.515875 91.6668333,45.6669063 C85.02925,40.897875 76.896125,38.080625 68.1135417,38.0448125 L68.1135417,38.0448125 L68.0718333,38.0448125 L68.0182083,38.0448125 L67.9645833,38.0448125 L67.922875,38.0448125 L67.922875,38.0448125 C59.1402917,38.080625 51.0250417,40.897875 44.3874583,45.649 C41.9385833,40.4860313 40.7409583,34.9589688 40.2821667,32.4759688 C47.5155833,30.7390625 52.8840417,24.2450625 52.8840417,16.47375 C52.8840417,7.377375 45.5255,0 36.4390417,0 C27.3525833,0 20,7.377375 20,16.47375 C20,24.3525 25.5174167,30.9240938 32.887875,32.5535625 L32.887875,32.5535625 Z M88.2527083,16.5394063 C88.2527083,10.26625 93.3351667,5.17490625 99.597375,5.17490625 C105.859583,5.17490625 110.936083,10.26625 110.936083,16.5394063 C110.936083,22.8185313 105.853625,27.9039063 99.597375,27.9039063 C93.3292083,27.9039063 88.2527083,22.8125625 88.2527083,16.5394063 L88.2527083,16.5394063 Z M49.189875,66.3844375 L67.922875,66.3844375 L68.1195,66.3844375 L86.8525,66.3844375 L86.8525,72.0010312 L68.1195,72.0010312 L67.922875,72.0010312 L49.189875,72.0010312 L49.189875,66.3844375 L49.189875,66.3844375 Z M36.4390417,5.10925 C42.7072083,5.10925 47.7837083,10.2005937 47.7837083,16.47375 C47.7837083,22.752875 42.70125,27.8442187 36.4390417,27.8442187 C30.1768333,27.8442187 25.094375,22.752875 25.094375,16.47375 C25.1003333,10.2005937 30.1768333,5.10925 36.4390417,5.10925 L36.4390417,5.10925 Z" id="Shape"></path>
                        <ellipse id="Oval" cx="36.1360833" cy="17.1450625" rx="5.13608333" ry="5.1450625"></ellipse>
                        <ellipse id="Oval" cx="99.1360833" cy="17.1450625" rx="5.13608333" ry="5.1450625"></ellipse>
                    </g>
                </g>
            </g>
        </g>
    </g>
</svg>

<svg width="137" height="192" viewBox="0 0 137 192" xmlns="http://www.w3.org/2000/svg"><title>Group 2</title><g fill="#4FB7FC" fill-rule="evenodd"><path d="M113.679 169.718a7.676 7.676 0 0 0 3.128-6.196c0-3.354-2.145-6.178-5.13-7.234 2.98-1.062 5.13-3.874 5.13-7.228 0-3.373-2.175-6.208-5.19-7.252 3.015-1.039 5.19-3.868 5.19-7.24a6.96 6.96 0 0 0-.065-.943c12.292-12.117 19.93-28.973 19.93-47.625H0c0 18.646 7.627 35.49 19.925 47.613-.03.292-.054.59-.054.883 0 3.366 2.18 6.208 5.196 7.252-3.015 1.039-5.196 3.868-5.196 7.24 0 3.355 2.145 6.178 5.13 7.24-2.985 1.057-5.13 3.874-5.13 7.228a7.681 7.681 0 0 0 3.128 6.19c-9.706 2.435-16.904 11.215-16.904 21.685H50.79c0-9.7-6.179-17.943-14.795-21.04a7.689 7.689 0 0 0 4.16-6.84c0-3.355-2.146-6.166-5.137-7.229 2.985-1.056 5.136-3.873 5.136-7.228 0-.627-.101-1.235-.244-1.82a66.29 66.29 0 0 0 26.77 5.616c.549 0 1.085-.024 1.627-.047.56.012 1.12.047 1.68.047a66.38 66.38 0 0 0 26.79-5.622 7.571 7.571 0 0 0-.257 1.88c0 3.354 2.151 6.178 5.13 7.228-2.979 1.057-5.13 3.88-5.13 7.234a7.69 7.69 0 0 0 4.165 6.84c-8.616 3.11-14.795 11.341-14.795 21.052h44.694c.012-10.469-7.192-19.25-16.904-21.684zM32.888 32.554c.31 2.029 1.8 10.493 5.803 18.031-7.042 7.336-11.386 17.304-11.386 28.292h81.421c0-10.977-4.332-20.932-11.363-28.274 3.992-7.527 5.47-15.966 5.791-17.996 7.371-1.63 12.888-8.207 12.888-16.074 0-9.102-7.358-16.473-16.445-16.473-9.074 0-16.445 7.371-16.445 16.473 0 7.766 5.375 14.266 12.596 16.003-.447 2.477-1.644 7.98-4.081 13.13a40.518 40.518 0 0 0-23.553-7.621h-.191a40.575 40.575 0 0 0-23.536 7.604c-2.448-5.163-3.646-10.69-4.105-13.173 7.234-1.737 12.602-8.23 12.602-16.002C52.884 7.377 45.526 0 36.439 0 27.353 0 20 7.377 20 16.474c0 7.878 5.517 14.45 12.888 16.08zm55.365-16.015c0-6.273 5.082-11.364 11.344-11.364 6.263 0 11.34 5.091 11.34 11.364 0 6.28-5.083 11.365-11.34 11.365-6.268 0-11.344-5.091-11.344-11.365zM49.19 66.384h37.663v5.617H49.19v-5.617zM36.439 5.11c6.268 0 11.345 5.092 11.345 11.365 0 6.279-5.083 11.37-11.345 11.37-6.262 0-11.345-5.091-11.345-11.37C25.1 10.2 30.177 5.109 36.44 5.109z"/><ellipse cx="36.136" cy="17.145" rx="5.136" ry="5.145"/><ellipse cx="99.136" cy="17.145" rx="5.136" ry="5.145"/></g></svg>
